packages/bezier-icons/icons/into-page-alt.svg

<svg width="24" height="24" viewBox="0 0 24 24" fill="none" xmlns="http://www.w3.org/2000/svg">
<path fill-rule="evenodd" clip-rule="evenodd" d="M10.3572 3L12 3L12 5L10.4 5C9.2634 5 8.47108 5.00078 7.85424 5.05117C7.24908 5.10062 6.90139 5.19279 6.63803 5.32698C6.07354 5.6146 5.6146 6.07354 5.32698 6.63803C5.1928 6.90138 5.10062 7.24907 5.05118 7.85424C5.00078 8.47108 5 9.26339 5 10.4L5 13.6C5 14.7366 5.00078 15.5289 5.05118 16.1458C5.10062 16.7509 5.19279 17.0986 5.32698 17.362C5.6146 17.9265 6.07354 18.3854 6.63803 18.673C6.90138 18.8072 7.24907 18.8994 7.85424 18.9488C8.47108 18.9992 9.26339 19 10.4 19L13.6 19C14.7366 19 15.5289 18.9992 16.1458 18.9488C16.7509 18.8994 17.0986 18.8072 17.362 18.673C17.9265 18.3854 18.3854 17.9265 18.673 17.362C18.8072 17.0986 18.8994 16.7509 18.9488 16.1458C18.9992 15.5289 19 14.7366 19 13.6L19 12L21 12L21 13.6428C21 14.7266 21 15.6008 20.9422 16.3086C20.8826 17.0375 20.7568 17.6777 20.455 18.27C19.9757 19.2108 19.2108 19.9757 18.27 20.455C17.6777 20.7568 17.0375 20.8826 16.3086 20.9422C15.6008 21 14.7266 21 13.6428 21L10.3572 21C9.27339 21 8.39925 21 7.69138 20.9422C6.96253 20.8826 6.32234 20.7568 5.73005 20.455C4.78924 19.9757 4.02433 19.2108 3.54497 18.27C3.24318 17.6777 3.11737 17.0375 3.05782 16.3086C2.99998 15.6007 2.99999 14.7266 3 13.6428L3 10.3572C2.99999 9.27341 2.99998 8.39925 3.05782 7.69137C3.11737 6.96252 3.24318 6.32234 3.54497 5.73005C4.02434 4.78923 4.78924 4.02433 5.73005 3.54497C6.32234 3.24318 6.96253 3.11737 7.69138 3.05782C8.39926 2.99998 9.27341 2.99999 10.3572 3Z" fill="#313234"/>
<path d="M10.1917 8.41181C10 8.63623 10 9.12089 10 10.0902L10 12.4C10 12.96 10 13.2401 10.109 13.454C10.2049 13.6422 10.3579 13.7951 10.546 13.891C10.7599 14 11.04 14 11.6 14L13.9098 14C14.8791 14 15.3638 14 15.5882 13.8083C15.7829 13.642 15.8863 13.3925 15.8662 13.1372C15.843 12.843 15.5003 12.5003 14.8149 11.8149L14.2071 11.2071L19.2071 6.20711C19.5976 5.81658 19.5976 5.18342 19.2071 4.79289C18.8166 4.40237 18.1834 4.40237 17.7929 4.79289L12.7929 9.79289L12.1851 9.1851C11.4997 8.49969 11.157 8.15699 10.8628 8.13384C10.6075 8.11374 10.358 8.21708 10.1917 8.41181Z" fill="#313234"/>
</svg>

<svg xmlns="http://www.w3.org/2000/svg" width="24" height="24" fill="none" viewBox="0 0 24 24"><path fill="#313234" fill-rule="evenodd" d="M10.357 3H12v2h-1.6c-1.137 0-1.929 0-2.546.051-.605.05-.953.142-1.216.276a3 3 0 0 0-1.311 1.311c-.134.263-.226.611-.276 1.216C5.001 8.471 5 9.264 5 10.4v3.2c0 1.137 0 1.929.051 2.546.05.605.142.953.276 1.216a3 3 0 0 0 1.311 1.311c.263.134.611.226 1.216.276.617.05 1.41.051 2.546.051h3.2c1.137 0 1.929 0 2.546-.051.605-.05.953-.142 1.216-.276a3 3 0 0 0 1.311-1.311c.134-.263.226-.611.276-1.216.05-.617.051-1.41.051-2.546V12h2v1.643c0 1.084 0 1.958-.058 2.666-.06.729-.185 1.369-.487 1.961a5 5 0 0 1-2.185 2.185c-.592.302-1.232.428-1.961.487C15.6 21 14.727 21 13.643 21h-3.286c-1.084 0-1.958 0-2.666-.058-.728-.06-1.369-.185-1.96-.487a5 5 0 0 1-2.186-2.185c-.302-.592-.428-1.232-.487-1.961C3 15.6 3 14.727 3 13.643v-3.286c0-1.084 0-1.958.058-2.666.06-.728.185-1.369.487-1.96A5 5 0 0 1 5.73 3.544c.592-.302 1.233-.428 1.961-.487C8.4 3 9.273 3 10.357 3" clip-rule="evenodd"/><path fill="#313234" d="M10.192 8.412C10 8.636 10 9.12 10 10.09v2.31c0 .56 0 .84.109 1.054a1 1 0 0 0 .437.437C10.76 14 11.04 14 11.6 14h2.31c.97 0 1.454 0 1.678-.192a.8.8 0 0 0 .278-.67c-.023-.295-.366-.638-1.051-1.323l-.608-.608 5-5a1 1 0 0 0-1.414-1.414l-5 5-.608-.608c-.685-.685-1.028-1.028-1.322-1.051a.8.8 0 0 0-.671.278"/></svg>
